src/24/panel/fcitx-erbi-panel.svg

<svg xmlns="http://www.w3.org/2000/svg" width="24" height="24" version="1.1">
 <defs>
  <style id="current-color-scheme" type="text/css">
   .ColorScheme-Text { color:#dfdfdf; } .ColorScheme-Highlight { color:#4285f4; }
  </style>
 </defs>
 <path style="fill:currentColor" class="ColorScheme-Text" d="M 6,4 C 4.892,4 4,4.892 4,6 v 12 c 0,1.108 0.892,2 2,2 h 12 c 1.108,0 2,-0.892 2,-2 V 6 C 20,4.892 19.108,4 18,4 Z m 8.03125,0.9921875 1,0.015625 C 15.021062,5.6879602 15.043325,6.3455896 15.068359,7 H 18 v 1 h -2.882812 c 0.148824,2.308238 0.481442,4.400619 0.890624,6.033203 0.290301,1.158273 0.615781,2.093664 0.91211,2.708985 0.148164,0.307659 0.292885,0.534515 0.396484,0.65625 0.04618,0.05426 -0.0014,0.03006 0.01172,0.03906 0.23837,-0.0636 0.37119,-0.153757 0.478516,-0.429688 0.121643,-0.312741 0.176093,-0.811555 0.183593,-1.375 l 1,0.01172 c -0.0081,0.606847 -0.04696,1.197587 -0.251953,1.72461 -0.20499,0.527023 -0.660068,0.999054 -1.302734,1.111328 a 0.50005,0.50005 0 0 1 -0.08008,0.0059 c -0.371987,0.0048 -0.607553,-0.212401 -0.800781,-0.439453 C 16.361455,17.819863 16.19094,17.531748 16.01953,17.175821 15.676712,16.463967 15.341013,15.480194 15.039061,14.275431 14.609645,12.562043 14.265475,10.393081 14.115234,8 H 6 V 7 h 8.070312 C 14.045744,6.3399811 14.020971,5.6784048 14.03125,4.9921875 Z M 17,5 c 0.416833,0.3789393 0.758179,0.7765262 1.023438,1.1933594 l -0.966797,0.5683594 c -0.227364,-0.4168334 -0.531218,-0.8331668 -0.910157,-1.25 z M 7,9 h 6 v 1 H 7 Z m 0,2 h 6 v 1 H 7 Z m 0,2 h 1 5 v 3 H 12 V 14 H 8 v 2 H 7 v -2 z m 2.0097656,2 H 10.091797 C 10.008525,16.204012 9.7080472,17.115307 9.1621094,17.693359 8.5179127,18.413344 7.3626453,18.848424 5.6953125,19 L 5.2402344,18.033203 C 6.7559915,17.881627 7.7593321,17.540281 8.2519531,17.009766 8.6817255,16.579993 8.9281536,15.902276 9.0097656,15 Z m 1.6933594,0.998047 c 0.947348,0.454727 1.819462,0.985494 2.615234,1.591797 L 12.521484,18.5 c -0.757878,-0.644197 -1.590545,-1.19371 -2.5,-1.648438 z"/>
</svg>

<svg xmlns="http://www.w3.org/2000/svg" width="24" height="24"><defs><style id="current-color-scheme" type="text/css"></style></defs><path d="M6 4c-1.108 0-2 .892-2 2v12c0 1.108.892 2 2 2h12c1.108 0 2-.892 2-2V6c0-1.108-.892-2-2-2zm8.031.992l1 .016c-.01.68.012 1.338.037 1.992H18v1h-2.883c.149 2.308.482 4.4.89 6.033.291 1.158.617 2.094.913 2.71.148.307.293.534.396.655.047.055-.001.03.012.04.238-.064.371-.154.479-.43.121-.313.176-.812.183-1.375l1 .012c-.008.606-.047 1.197-.252 1.724-.205.527-.66 1-1.302 1.111a.5.5 0 0 1-.08.006c-.373.005-.608-.212-.801-.44-.194-.226-.364-.514-.535-.87-.343-.712-.679-1.696-.98-2.9-.43-1.714-.775-3.883-.925-6.276H6V7h8.07c-.024-.66-.049-1.322-.039-2.008zM17 5c.417.379.758.777 1.023 1.193l-.966.569a6.515 6.515 0 0 0-.91-1.25zM7 9h6v1H7zm0 2h6v1H7zm0 2h6v3h-1v-2H8v2H7v-2zm2.01 2h1.082c-.083 1.204-.384 2.115-.93 2.693-.644.72-1.8 1.155-3.467 1.307l-.455-.967c1.516-.151 2.52-.493 3.012-1.023.43-.43.676-1.108.758-2.01zm1.693.998c.947.455 1.82.986 2.615 1.592l-.797.91a12.416 12.416 0 0 0-2.5-1.648z" fill="currentColor" color="#bebebe"/></svg>
